logos/codepen-icon.svg

<?xml version="1.0" encoding="UTF-8"?>
<svg width="256px" height="256px" viewBox="0 0 256 256" version="1.1" xmlns="http://www.w3.org/2000/svg" preserveAspectRatio="xMidYMid">
    <title>CodePen</title>
    <g>
        <path d="M127.574384,0.00746439363 L127.796306,0.00167782314 L127.796306,0.00167782314 L128.20519,0.00167782314 L128.20519,0.00167782314 L128.486141,0.0097244509 L128.486141,0.0097244509 L128.818919,0.0276579086 L128.818919,0.0276579086 C130.964539,0.17047912 132.95713,0.872238627 134.652708,1.98839909 L250.382971,78.7918676 C251.580336,79.551859 252.660542,80.5341365 253.557405,81.7257506 L253.78091,82.0323989 L253.78091,82.0323989 L253.935824,82.2573416 C255.318112,84.3120948 255.987031,86.6375943 256,88.9413079 L256,166.811881 C256.03119,169.039864 255.450844,171.29795 254.205768,173.320861 L254.074393,173.529595 L254.074393,173.529595 L253.935824,173.740176 L253.935824,173.740176 C253.051161,175.055215 251.953658,176.141399 250.719997,176.983724 L134.839215,253.883856 C133.108518,255.069623 131.054453,255.817846 128.836451,255.969094 L128.322542,255.993293 L128.322542,255.993293 L128,255.997518 L127.789275,255.997518 L127.789275,255.997518 L127.475407,255.986176 L127.475407,255.986176 L127.148065,255.967582 L127.148065,255.967582 C124.947969,255.815172 122.909756,255.074972 121.189044,253.903158 L5.6484681,177.225537 C4.61918038,176.576678 3.67574668,175.764035 2.85999587,174.795791 L2.83257337,174.761845 C2.57552382,174.455224 2.33428632,174.136593 2.10956752,173.807269 L2.06417622,173.740176 C0.641355515,171.625173 -0.0256459584,169.223312 5.25801624e-13,166.853621 L5.25801624e-13,89.1856365 C-0.0280623264,87.1721938 0.443071969,85.1341658 1.45299925,83.2673401 L1.70085109,82.8315384 L1.70085109,82.8315384 L1.80191444,82.6641914 L1.80191444,82.6641914 C2.00985041,82.3270184 2.23410459,81.9999993 2.47430303,81.6842144 C3.37285239,80.5005893 4.45279237,79.5257068 5.64861026,78.7718911 L121.167856,2.10882142 C122.791188,0.998296578 124.698531,0.272512667 126.758524,0.0628312606 L127.216102,0.025340344 L127.216102,0.025340344 L127.574384,0.00746439363 L127.574384,0.00746439363 Z M70.058,142.6 L33.925,166.907 L115.884,221.293 L115.884,173.428 L70.058,142.6 Z M185.941,142.599 L140.115,173.428 L140.115,221.293 L222.072,166.905 L185.941,142.599 Z M128.000216,103.621053 L91.768,127.995 L128.000216,152.36593 L164.232,127.995 L128.000216,103.621053 Z M24.221,111.764 L24.221,144.232 L48.353,127.998 L24.221,111.764 Z M231.758,111.777 L207.646,127.998 L231.758,144.219 L231.758,111.777 Z M115.884,34.686 L33.918,89.083 L70.061,113.394 L115.884,82.568 L115.884,34.686 Z M140.115,34.699 L140.115,82.568 L185.938,113.394 L222.078,89.086 L140.115,34.699 Z" fill="#000000"></path>
    </g>
</svg>

<svg preserveAspectRatio="xMidYMid" viewBox="0 0 256 256" xmlns="http://www.w3.org/2000/svg">
  <path d="m127.574.007.222-.005h.41l.28.008.333.018c2.146.142 4.138.844 5.834 1.96l115.73 76.804a12.052 12.052 0 0 1 3.174 2.934l.224.306.155.225A12.06 12.06 0 0 1 256 88.941v77.87a12.064 12.064 0 0 1-1.794 6.51l-.132.209-.138.21a12.082 12.082 0 0 1-3.216 3.244l-115.88 76.9a12.048 12.048 0 0 1-6.004 2.085l-.513.024-.323.005h-.21l-.315-.012-.327-.018a12.043 12.043 0 0 1-5.959-2.065L5.649 177.226a12.036 12.036 0 0 1-2.789-2.43l-.027-.034a12.114 12.114 0 0 1-.723-.955l-.046-.067A12.066 12.066 0 0 1 0 166.854V89.186a12.062 12.062 0 0 1 1.453-5.919l.248-.435.1-.168a12.172 12.172 0 0 1 3.848-3.892L121.168 2.109a12.046 12.046 0 0 1 5.59-2.046l.458-.038.358-.018ZM70.058 142.6l-36.133 24.307 81.959 54.386v-47.865L70.058 142.6Zm115.883-.001-45.826 30.829v47.865l81.957-54.388-36.131-24.306Zm-57.94-38.978-36.233 24.374L128 152.365l36.232-24.37L128 103.621Zm-103.78 8.143v32.468l24.132-16.234-24.132-16.234Zm207.537.013-24.112 16.221 24.112 16.221v-32.442ZM115.884 34.686 33.918 89.083l36.143 24.311 45.823-30.826V34.686Zm24.231.013v47.869l45.823 30.826 36.14-24.308-81.963-54.387Z"/>
</svg>
